app/assets/images/payment_icons/tcf.svg

<svg role="img" xmlns="http://www.w3.org/2000/svg" viewBox="0 0 38 24" width="38" height="24" aria-labelledby="pi-telefonica_consumer_finance"><title id="pi-telefonica_consumer_finance">Telefónica Consumer Finance</title><path opacity=".07" d="M35 0H3C1.3 0 0 1.3 0 3v18c0 1.7 1.4 3 3 3h32c1.7 0 3-1.3 3-3V3c0-1.7-1.4-3-3-3z"/><path fill="#fff" d="M35 1c1.1 0 2 .9 2 2v18c0 1.1-.9 2-2 2H3c-1.1 0-2-.9-2-2V3c0-1.1.9-2 2-2h32"/><path fill="#06f" d="M5.997 14.159a.918.918 0 10-1.836 0 .918.918 0 001.836 0zm11.786.695a.605.605 0 01-.232-.241.73.73 0 01-.084-.353v-.972h.243v.972a.46.46 0 00.058.23.43.43 0 00.379.223.475.475 0 00.407-.23.42.42 0 00.063-.223v-.972h.243v1.62h-.21l-.033-.178h-.016a.647.647 0 01-.486.21.64.64 0 01-.332-.086zm-4.988-.021a.746.746 0 01-.28-.298.901.901 0 01-.103-.437c0-.164.034-.31.103-.438a.759.759 0 01.675-.405.753.753 0 01.676.405.92.92 0 01.102.438c0 .164-.034.31-.102.437a.748.748 0 01-.676.405.746.746 0 01-.395-.107zm9.412 0a.746.746 0 01-.28-.298.912.912 0 01-.102-.437.92.92 0 01.102-.438.759.759 0 011.055-.304.707.707 0 01.268.277.814.814 0 01.098.4.634.634 0 01-.017.178h-1.263a.544.544 0 00.175.365.515.515 0 00.359.137.493.493 0 00.261-.068.448.448 0 00.177-.191h.259a.722.722 0 01-.264.36.735.735 0 01-.433.126.748.748 0 01-.395-.107zm12.652 0a.753.753 0 01-.28-.298.912.912 0 01-.102-.437.92.92 0 01.102-.438.759.759 0 01.676-.405.739.739 0 01.648.378.814.814 0 01.097.4.644.644 0 01-.016.178H34.72a.549.549 0 00.175.365.52.52 0 00.36.137.498.498 0 00.261-.068.452.452 0 00.176-.191h.259a.722.722 0 01-.264.36.734.734 0 01-.432.126.75.75 0 01-.396-.107zm-18.641.038a.562.562 0 01-.227-.185.427.427 0 01-.079-.248h.243c0 .076.036.14.108.194a.487.487 0 00.297.081.506.506 0 00.286-.069c.069-.047.103-.104.103-.174a.204.204 0 00-.067-.157.429.429 0 00-.209-.086l-.275-.048c-.303-.052-.454-.203-.454-.454 0-.136.051-.248.154-.337.103-.088.251-.133.446-.133a.76.76 0 01.332.07c.096.046.17.109.222.186.051.078.077.16.077.247h-.243c0-.076-.035-.141-.107-.195a.453.453 0 00-.281-.081.431.431 0 00-.265.07.21.21 0 00-.092.173c0 .061.02.109.06.146.04.037.106.064.199.081l.276.049c.162.028.281.081.356.158a.427.427 0 01.114.311.416.416 0 01-.164.337c-.109.089-.265.133-.468.133a.797.797 0 01-.342-.069zm13.346-.072a.463.463 0 01-.158-.361c0-.162.054-.289.161-.381.107-.092.269-.137.488-.137h.437v-.049a.385.385 0 00-.104-.285.385.385 0 00-.285-.104.465.465 0 00-.283.08.273.273 0 00-.122.196h-.243a.502.502 0 01.088-.248.532.532 0 01.222-.185.775.775 0 01.338-.07c.197 0 .351.055.463.164.113.109.169.26.169.452v1.037h-.211l-.032-.195h-.016a.476.476 0 01-.19.158.676.676 0 01-.312.069.589.589 0 01-.41-.141zm-18.882-.006a1.05 1.05 0 01-.393-.413 1.24 1.24 0 01-.145-.606c0-.227.048-.429.145-.606a1.05 1.05 0 01.941-.561c.244 0 .456.068.637.204.18.137.302.322.367.558h-.275a.754.754 0 00-.279-.381.757.757 0 00-.45-.138.782.782 0 00-.417.117.823.823 0 00-.299.327c-.074.141-.11.301-.11.48s.036.339.11.479a.79.79 0 00.716.444.746.746 0 00.729-.534h.275a1.03 1.03 0 01-.367.57 1.02 1.02 0 01-.637.207c-.199 0-.381-.049-.548-.147zm22.509.04a.746.746 0 01-.28-.298.912.912 0 01-.102-.437.92.92 0 01.102-.438.759.759 0 01.675-.405c.179 0 .333.05.46.148a.695.695 0 01.253.403h-.243a.436.436 0 00-.173-.24.52.52 0 00-.297-.084.509.509 0 00-.463.293.701.701 0 00-.071.323c0 .121.023.228.071.322a.52.52 0 00.194.217.5.5 0 00.269.076.502.502 0 00.298-.087.455.455 0 00.172-.253h.243a.718.718 0 01-.253.417.722.722 0 01-.46.15.746.746 0 01-.395-.107zm-5.502.075v-1.62h.211l.032.178h.016a.642.642 0 01.486-.211c.124 0 .234.029.333.086a.605.605 0 01.231.242.728.728 0 01.084.353v.972h-.242v-.972a.46.46 0 00-.218-.394.42.42 0 00-.22-.06.463.463 0 00-.235.063.492.492 0 00-.172.167.424.424 0 00-.063.224v.972h-.243zm-8.44 0v-1.62h.211l.032.178h.016a.617.617 0 01.178-.146.486.486 0 01.243-.065c.115 0 .214.028.297.085a.463.463 0 01.173.191h.016a.6.6 0 01.213-.191.617.617 0 01.322-.085.565.565 0 01.509.305.703.703 0 01.074.327v1.021h-.243v-1.021a.417.417 0 00-.102-.293.347.347 0 00-.27-.112.39.39 0 00-.198.054.402.402 0 00-.207.351v1.021h-.243v-1.021a.417.417 0 00-.102-.293.35.35 0 00-.271-.112.393.393 0 00-.198.054.4.4 0 00-.15.147.388.388 0 00-.057.204v1.021h-.243zm6.334 0h-.259V12.64h1.426v.243h-1.167v.761h1.102v.243h-1.102v1.021zm-11.324 0v-1.62h.211l.032.178h.017a.643.643 0 01.486-.211c.123 0 .233.029.332.086a.605.605 0 01.231.242.728.728 0 01.085.353v.972h-.243v-.972a.46.46 0 00-.218-.394.42.42 0 00-.22-.06.463.463 0 00-.235.063.492.492 0 00-.172.167.424.424 0 00-.063.224v.972h-.243zm16.865 0v-1.62h.21l.033.178h.016a.65.65 0 01.486-.211.65.65 0 01.332.086.608.608 0 01.232.242.728.728 0 01.084.353v.972h-.243v-.972a.46.46 0 00-.058-.23.44.44 0 00-.614-.161.475.475 0 00-.172.167.424.424 0 00-.063.224v.972h-.243zm-7.485 0v-1.62h.211l.032.162h.016a.392.392 0 01.12-.123.369.369 0 01.188-.039h.276v.227h-.243c-.113 0-.2.03-.263.092-.063.061-.094.15-.094.264v1.037h-.243zm3.661 0h-.243v-1.62h.243v1.62zm-13.841-.271a.52.52 0 00.194-.217.697.697 0 00.072-.322.701.701 0 00-.072-.323.509.509 0 00-.732-.217.526.526 0 00-.194.217.701.701 0 00-.072.323c0 .121.024.228.072.322a.52.52 0 00.194.217.5.5 0 00.269.076.5.5 0 00.269-.076zm16.895-.058a.49.49 0 00.138-.368v-.065h-.437c-.139 0-.241.027-.307.081a.26.26 0 00-.099.211c0 .082.029.149.085.199.056.051.136.076.24.076a.519.519 0 00.38-.134zm-7.249-.595a.537.537 0 00-.154-.361.473.473 0 00-.349-.141.5.5 0 00-.362.141.573.573 0 00-.172.361h1.037zm12.652 0a.537.537 0 00-.154-.361.473.473 0 00-.348-.141.5.5 0 00-.363.141.578.578 0 00-.172.361h1.037zm-8.695-1.059a.161.161 0 01-.043-.117.16.16 0 01.043-.118.162.162 0 01.119-.044.16.16 0 01.116.044c.03.029.046.069.046.118a.159.159 0 01-.046.117.158.158 0 01-.116.045.158.158 0 01-.119-.045zM5.997 12a.918.918 0 10-1.837-.001.918.918 0 001.837.001zm9.796-.758a.771.771 0 01-.762.518c-.486 0-.843-.356-.843-.859 0-.502.357-.859.843-.859.454 0 .811.357.811.827 0 .049-.007.087-.01.117l-.006.045h-1.232c.035.23.207.389.437.389.192 0 .308-.11.341-.178h.421zm-2.544 0a.773.773 0 01-.762.518c-.486 0-.843-.356-.843-.859 0-.502.357-.859.843-.859.454 0 .81.357.81.827 0 .049-.006.087-.009.117l-.007.045h-1.232c.036.23.208.389.438.389.191 0 .308-.11.34-.178h.422zm9.82-.13c-.052.259-.256.648-.778.648-.486 0-.843-.356-.843-.859 0-.502.357-.859.843-.859.522 0 .726.389.778.632h-.405a.378.378 0 00-.373-.259c-.243 0-.438.194-.438.486s.195.487.438.487.337-.163.373-.276h.405zm-4.346-.211c0 .503-.357.859-.843.859s-.843-.356-.843-.859c0-.502.357-.859.843-.859s.843.357.843.859zm5.571.665h-.016a.472.472 0 01-.113.097.651.651 0 01-.357.097c-.376 0-.6-.23-.6-.502 0-.324.227-.551.681-.551h.373v-.033c0-.181-.11-.308-.292-.308-.181 0-.275.117-.292.211h-.405c.036-.272.256-.535.697-.535.422 0 .697.279.697.632v1.054h-.34l-.033-.162zM13.946 9.459h-.406v2.269h.406V9.459zm-3.223.405h-.68v-.405h1.783v.405h-.681v1.864h-.422V9.864zm5.492.6h-.276v-.389h.276v-.244c0-.246.158-.405.405-.405h.356v.357h-.243a.11.11 0 00-.113.113v.179h.356v.389h-.356v1.264h-.405v-1.264zm2.751-.389h.373l.032.162h.016a.59.59 0 01.111-.098.622.622 0 01.343-.097c.373 0 .649.276.649.697v.989h-.406v-.956a.34.34 0 00-.356-.357.34.34 0 00-.357.357v.956h-.405v-1.653zm2.239 0H20.8v1.653h.405v-1.653zm3.057.94h-.34c-.211 0-.308.081-.308.21 0 .13.094.211.259.211.246 0 .389-.142.389-.373v-.048zm-5.944-.114c0-.292-.195-.486-.438-.486s-.438.194-.438.486.195.487.438.487.438-.195.438-.487zm-14.48-1.06a.92.92 0 10-1.838 0 .92.92 0 001.838 0zm2.159 0A.918.918 0 104.16 9.84a.918.918 0 001.837.001zm2.16 0a.92.92 0 10-1.838 0 .92.92 0 001.838 0zm7.28.914c-.036-.21-.175-.372-.406-.372-.246 0-.389.162-.437.372h.843zm-2.545 0c-.036-.21-.175-.372-.405-.372-.247 0-.389.162-.438.372h.843zm5.134-1.377h.421l-.389.47h-.34l.308-.47zm3.216.219a.24.24 0 10-.48 0 .24.24 0 00.48 0z"/></svg>

<svg xmlns="http://www.w3.org/2000/svg" role="img" viewBox="0 0 38 24" width="38" height="24" aria-labelledby="pi-telefonica_consumer_finance">
    <title id="pi-telefonica_consumer_finance">Telefónica Consumer Finance</title>
    <path fill="#000" opacity=".07" d="M35 0H3C1.3 0 0 1.3 0 3v18c0 1.7 1.4 3 3 3h32c1.7 0 3-1.3 3-3V3c0-1.7-1.4-3-3-3z"/>
    <path fill="#fff" d="M35 1c1.1 0 2 .9 2 2v18c0 1.1-.9 2-2 2H3c-1.1 0-2-.9-2-2V3c0-1.1.9-2 2-2h32"/>
    <path fill="#0066ff" d="M5.997,14.159C5.997,13.652 5.586,13.241 5.078,13.241C4.571,13.241 4.159,13.652 4.159,14.159C4.159,14.667 4.571,15.078 5.078,15.078C5.586,15.078 5.997,14.667 5.997,14.159ZM17.783,14.854C17.685,14.797 17.607,14.717 17.551,14.613C17.495,14.509 17.467,14.392 17.467,14.26L17.467,13.288L17.71,13.288L17.71,14.26C17.71,14.344 17.729,14.421 17.768,14.49C17.807,14.559 17.86,14.614 17.927,14.653C17.994,14.693 18.067,14.713 18.147,14.713C18.232,14.713 18.31,14.692 18.382,14.65C18.455,14.608 18.512,14.552 18.554,14.483C18.596,14.414 18.617,14.34 18.617,14.26L18.617,13.288L18.86,13.288L18.86,14.908L18.65,14.908L18.617,14.73L18.601,14.73C18.556,14.786 18.49,14.835 18.405,14.877C18.32,14.919 18.223,14.94 18.115,14.94C17.992,14.94 17.881,14.912 17.783,14.854ZM12.795,14.833C12.676,14.762 12.583,14.663 12.515,14.535C12.446,14.408 12.412,14.262 12.412,14.098C12.412,13.934 12.446,13.788 12.515,13.66C12.583,13.533 12.676,13.434 12.795,13.362C12.914,13.291 13.045,13.255 13.19,13.255C13.335,13.255 13.467,13.291 13.585,13.362C13.704,13.434 13.798,13.533 13.866,13.66C13.934,13.788 13.968,13.934 13.968,14.098C13.968,14.262 13.934,14.408 13.866,14.535C13.798,14.663 13.704,14.762 13.585,14.833C13.467,14.905 13.335,14.94 13.19,14.94C13.045,14.94 12.914,14.905 12.795,14.833ZM22.207,14.833C22.088,14.762 21.995,14.663 21.927,14.535C21.859,14.408 21.825,14.262 21.825,14.098C21.825,13.934 21.859,13.788 21.927,13.66C21.995,13.533 22.088,13.434 22.207,13.362C22.326,13.291 22.458,13.255 22.602,13.255C22.741,13.255 22.867,13.289 22.982,13.356C23.096,13.423 23.186,13.515 23.25,13.633C23.315,13.751 23.348,13.884 23.348,14.033C23.348,14.119 23.342,14.179 23.331,14.211L22.068,14.211C22.083,14.362 22.141,14.484 22.243,14.576C22.344,14.668 22.464,14.713 22.602,14.713C22.7,14.713 22.787,14.691 22.863,14.645C22.94,14.6 22.999,14.536 23.04,14.454L23.299,14.454C23.243,14.61 23.155,14.73 23.035,14.814C22.915,14.898 22.771,14.94 22.602,14.94C22.458,14.94 22.326,14.905 22.207,14.833ZM34.859,14.833C34.741,14.762 34.647,14.663 34.579,14.535C34.511,14.408 34.477,14.262 34.477,14.098C34.477,13.934 34.511,13.788 34.579,13.66C34.647,13.533 34.741,13.434 34.859,13.362C34.978,13.291 35.11,13.255 35.255,13.255C35.393,13.255 35.519,13.289 35.634,13.356C35.748,13.423 35.838,13.515 35.903,13.633C35.968,13.751 36,13.884 36,14.033C36,14.119 35.995,14.179 35.984,14.211L34.72,14.211C34.735,14.362 34.794,14.484 34.895,14.576C34.997,14.668 35.117,14.713 35.255,14.713C35.352,14.713 35.439,14.691 35.516,14.645C35.592,14.6 35.651,14.536 35.692,14.454L35.951,14.454C35.895,14.61 35.807,14.73 35.687,14.814C35.567,14.898 35.423,14.94 35.255,14.94C35.11,14.94 34.978,14.905 34.859,14.833ZM16.218,14.871C16.12,14.824 16.044,14.763 15.991,14.686C15.938,14.609 15.912,14.527 15.912,14.438L16.155,14.438C16.155,14.514 16.191,14.578 16.263,14.632C16.336,14.686 16.434,14.713 16.56,14.713C16.683,14.713 16.778,14.69 16.846,14.644C16.915,14.597 16.949,14.54 16.949,14.47C16.949,14.406 16.926,14.353 16.882,14.313C16.838,14.273 16.768,14.245 16.673,14.227L16.398,14.179C16.095,14.127 15.944,13.976 15.944,13.725C15.944,13.589 15.995,13.477 16.098,13.388C16.201,13.3 16.349,13.255 16.544,13.255C16.669,13.255 16.78,13.279 16.876,13.325C16.972,13.371 17.046,13.434 17.098,13.511C17.149,13.589 17.175,13.671 17.175,13.758L16.932,13.758C16.932,13.682 16.897,13.617 16.825,13.563C16.754,13.509 16.66,13.482 16.544,13.482C16.429,13.482 16.341,13.505 16.279,13.552C16.218,13.598 16.187,13.656 16.187,13.725C16.187,13.786 16.207,13.834 16.247,13.871C16.287,13.908 16.353,13.935 16.446,13.952L16.722,14.001C16.884,14.029 17.003,14.082 17.078,14.159C17.154,14.237 17.192,14.341 17.192,14.47C17.192,14.606 17.137,14.719 17.028,14.807C16.919,14.896 16.763,14.94 16.56,14.94C16.43,14.94 16.316,14.917 16.218,14.871ZM29.564,14.799C29.459,14.705 29.406,14.585 29.406,14.438C29.406,14.276 29.46,14.149 29.567,14.057C29.674,13.965 29.836,13.92 30.055,13.92L30.492,13.92L30.492,13.871C30.492,13.75 30.457,13.655 30.388,13.586C30.319,13.517 30.224,13.482 30.103,13.482C29.986,13.482 29.892,13.509 29.82,13.562C29.747,13.614 29.707,13.68 29.698,13.758L29.455,13.758C29.462,13.669 29.491,13.586 29.543,13.51C29.594,13.433 29.668,13.371 29.765,13.325C29.861,13.279 29.974,13.255 30.103,13.255C30.3,13.255 30.454,13.31 30.566,13.419C30.679,13.528 30.735,13.679 30.735,13.871L30.735,14.908L30.524,14.908L30.492,14.713L30.476,14.713C30.439,14.772 30.376,14.824 30.286,14.871C30.196,14.917 30.092,14.94 29.974,14.94C29.805,14.94 29.668,14.893 29.564,14.799ZM10.682,14.793C10.516,14.695 10.385,14.557 10.289,14.38C10.192,14.203 10.144,14.001 10.144,13.774C10.144,13.547 10.192,13.345 10.289,13.168C10.385,12.991 10.516,12.853 10.682,12.755C10.849,12.656 11.031,12.607 11.23,12.607C11.474,12.607 11.686,12.675 11.867,12.811C12.047,12.948 12.169,13.133 12.234,13.369L11.959,13.369C11.903,13.207 11.81,13.08 11.68,12.988C11.551,12.896 11.4,12.85 11.23,12.85C11.079,12.85 10.94,12.889 10.813,12.967C10.687,13.045 10.587,13.154 10.514,13.294C10.44,13.435 10.404,13.595 10.404,13.774C10.404,13.953 10.44,14.113 10.514,14.253C10.587,14.394 10.687,14.503 10.813,14.581C10.94,14.658 11.079,14.697 11.23,14.697C11.4,14.697 11.551,14.65 11.68,14.556C11.81,14.462 11.903,14.331 11.959,14.163L12.234,14.163C12.169,14.405 12.047,14.595 11.867,14.733C11.686,14.871 11.474,14.94 11.23,14.94C11.031,14.94 10.849,14.891 10.682,14.793ZM33.191,14.833C33.072,14.762 32.979,14.663 32.911,14.535C32.843,14.408 32.809,14.262 32.809,14.098C32.809,13.934 32.843,13.788 32.911,13.66C32.979,13.533 33.072,13.434 33.191,13.362C33.31,13.291 33.441,13.255 33.586,13.255C33.765,13.255 33.919,13.305 34.046,13.403C34.174,13.501 34.258,13.636 34.299,13.806L34.056,13.806C34.024,13.702 33.966,13.623 33.883,13.566C33.799,13.51 33.701,13.482 33.586,13.482C33.489,13.482 33.399,13.508 33.317,13.558C33.235,13.609 33.17,13.681 33.123,13.775C33.075,13.869 33.052,13.977 33.052,14.098C33.052,14.219 33.075,14.326 33.123,14.42C33.17,14.514 33.235,14.587 33.317,14.637C33.399,14.688 33.489,14.713 33.586,14.713C33.703,14.713 33.802,14.684 33.884,14.626C33.966,14.568 34.024,14.483 34.056,14.373L34.299,14.373C34.258,14.55 34.174,14.689 34.046,14.79C33.919,14.89 33.765,14.94 33.586,14.94C33.441,14.94 33.31,14.905 33.191,14.833ZM27.689,14.908L27.689,13.288L27.9,13.288L27.932,13.466L27.948,13.466C27.992,13.412 28.056,13.363 28.143,13.32C28.229,13.277 28.326,13.255 28.434,13.255C28.558,13.255 28.668,13.284 28.767,13.341C28.865,13.398 28.942,13.479 28.998,13.583C29.054,13.686 29.082,13.804 29.082,13.936L29.082,14.908L28.84,14.908L28.84,13.936C28.84,13.852 28.82,13.775 28.781,13.706C28.742,13.637 28.689,13.582 28.622,13.542C28.555,13.502 28.482,13.482 28.402,13.482C28.318,13.482 28.24,13.503 28.167,13.545C28.095,13.587 28.038,13.643 27.995,13.712C27.953,13.781 27.932,13.856 27.932,13.936L27.932,14.908L27.689,14.908ZM19.249,14.908L19.249,13.288L19.46,13.288L19.492,13.466L19.508,13.466C19.551,13.412 19.611,13.363 19.686,13.32C19.762,13.277 19.843,13.255 19.929,13.255C20.044,13.255 20.143,13.283 20.226,13.34C20.309,13.396 20.367,13.459 20.399,13.531L20.415,13.531C20.461,13.459 20.531,13.396 20.628,13.34C20.724,13.283 20.831,13.255 20.95,13.255C21.062,13.255 21.163,13.282 21.251,13.336C21.34,13.39 21.409,13.465 21.459,13.56C21.508,13.655 21.533,13.764 21.533,13.887L21.533,14.908L21.29,14.908L21.29,13.887C21.29,13.766 21.256,13.668 21.188,13.594C21.12,13.519 21.03,13.482 20.918,13.482C20.848,13.482 20.783,13.5 20.72,13.536C20.657,13.571 20.607,13.62 20.569,13.683C20.531,13.746 20.513,13.814 20.513,13.887L20.513,14.908L20.27,14.908L20.27,13.887C20.27,13.766 20.236,13.668 20.168,13.594C20.099,13.519 20.009,13.482 19.897,13.482C19.828,13.482 19.762,13.5 19.699,13.536C19.637,13.571 19.586,13.62 19.549,13.683C19.511,13.746 19.492,13.814 19.492,13.887L19.492,14.908L19.249,14.908ZM25.583,14.908L25.324,14.908L25.324,12.64L26.75,12.64L26.75,12.883L25.583,12.883L25.583,13.644L26.685,13.644L26.685,13.887L25.583,13.887L25.583,14.908ZM14.259,14.908L14.259,13.288L14.47,13.288L14.502,13.466L14.519,13.466C14.562,13.412 14.627,13.363 14.713,13.32C14.799,13.277 14.896,13.255 15.005,13.255C15.128,13.255 15.238,13.284 15.337,13.341C15.435,13.398 15.512,13.479 15.568,13.583C15.624,13.686 15.653,13.804 15.653,13.936L15.653,14.908L15.41,14.908L15.41,13.936C15.41,13.852 15.39,13.775 15.351,13.706C15.312,13.637 15.259,13.582 15.192,13.542C15.125,13.502 15.052,13.482 14.972,13.482C14.888,13.482 14.81,13.503 14.737,13.545C14.665,13.587 14.608,13.643 14.565,13.712C14.523,13.781 14.502,13.856 14.502,13.936L14.502,14.908L14.259,14.908ZM31.124,14.908L31.124,13.288L31.334,13.288L31.367,13.466L31.383,13.466C31.426,13.412 31.491,13.363 31.577,13.32C31.664,13.277 31.761,13.255 31.869,13.255C31.992,13.255 32.103,13.284 32.201,13.341C32.299,13.398 32.377,13.479 32.433,13.583C32.489,13.686 32.517,13.804 32.517,13.936L32.517,14.908L32.274,14.908L32.274,13.936C32.274,13.852 32.255,13.775 32.216,13.706C32.177,13.637 32.124,13.582 32.057,13.542C31.99,13.502 31.916,13.482 31.837,13.482C31.752,13.482 31.674,13.503 31.602,13.545C31.529,13.587 31.472,13.643 31.43,13.712C31.388,13.781 31.367,13.856 31.367,13.936L31.367,14.908L31.124,14.908ZM23.639,14.908L23.639,13.288L23.85,13.288L23.882,13.45L23.898,13.45C23.935,13.394 23.975,13.353 24.018,13.327C24.061,13.301 24.124,13.288 24.206,13.288L24.482,13.288L24.482,13.515L24.239,13.515C24.126,13.515 24.039,13.545 23.976,13.607C23.913,13.668 23.882,13.757 23.882,13.871L23.882,14.908L23.639,14.908ZM27.3,14.908L27.057,14.908L27.057,13.288L27.3,13.288L27.3,14.908ZM13.459,14.637C13.541,14.587 13.606,14.514 13.653,14.42C13.701,14.326 13.725,14.219 13.725,14.098C13.725,13.977 13.701,13.869 13.653,13.775C13.606,13.681 13.541,13.609 13.459,13.558C13.377,13.508 13.287,13.482 13.19,13.482C13.093,13.482 13.003,13.508 12.921,13.558C12.839,13.609 12.774,13.681 12.727,13.775C12.679,13.869 12.655,13.977 12.655,14.098C12.655,14.219 12.679,14.326 12.727,14.42C12.774,14.514 12.839,14.587 12.921,14.637C13.003,14.688 13.093,14.713 13.19,14.713C13.287,14.713 13.377,14.688 13.459,14.637ZM30.354,14.579C30.446,14.489 30.492,14.367 30.492,14.211L30.492,14.146L30.055,14.146C29.916,14.146 29.814,14.173 29.748,14.227C29.682,14.281 29.649,14.352 29.649,14.438C29.649,14.52 29.678,14.587 29.734,14.637C29.79,14.688 29.87,14.713 29.974,14.713C30.136,14.713 30.262,14.669 30.354,14.579ZM23.105,13.984C23.096,13.837 23.045,13.717 22.951,13.623C22.857,13.529 22.741,13.482 22.602,13.482C22.458,13.482 22.337,13.529 22.24,13.623C22.142,13.717 22.085,13.837 22.068,13.984L23.105,13.984ZM35.757,13.984C35.748,13.837 35.697,13.717 35.603,13.623C35.509,13.529 35.393,13.482 35.255,13.482C35.11,13.482 34.989,13.529 34.892,13.623C34.795,13.717 34.737,13.837 34.72,13.984L35.757,13.984ZM27.062,12.925C27.033,12.895 27.019,12.856 27.019,12.808C27.019,12.759 27.033,12.719 27.062,12.69C27.091,12.661 27.131,12.646 27.181,12.646C27.228,12.646 27.267,12.661 27.297,12.69C27.327,12.719 27.343,12.759 27.343,12.808C27.343,12.856 27.327,12.895 27.297,12.925C27.267,12.955 27.228,12.97 27.181,12.97C27.131,12.97 27.091,12.955 27.062,12.925ZM5.997,12C5.997,11.492 5.586,11.081 5.078,11.081C4.571,11.081 4.159,11.492 4.159,12C4.159,12.508 4.571,12.919 5.078,12.919C5.586,12.919 5.997,12.508 5.997,12ZM15.793,11.242C15.758,11.371 15.553,11.76 15.031,11.76C14.545,11.76 14.188,11.404 14.188,10.901C14.188,10.399 14.545,10.042 15.031,10.042C15.485,10.042 15.842,10.399 15.842,10.869C15.842,10.918 15.835,10.956 15.832,10.986L15.826,11.031L14.594,11.031C14.629,11.261 14.801,11.42 15.031,11.42C15.223,11.42 15.339,11.31 15.372,11.242L15.793,11.242ZM13.249,11.242C13.213,11.371 13.009,11.76 12.487,11.76C12.001,11.76 11.644,11.404 11.644,10.901C11.644,10.399 12.001,10.042 12.487,10.042C12.941,10.042 13.297,10.399 13.297,10.869C13.297,10.918 13.291,10.956 13.288,10.986L13.281,11.031L12.049,11.031C12.085,11.261 12.257,11.42 12.487,11.42C12.678,11.42 12.795,11.31 12.827,11.242L13.249,11.242ZM23.069,11.112C23.017,11.371 22.813,11.76 22.291,11.76C21.805,11.76 21.448,11.404 21.448,10.901C21.448,10.399 21.805,10.042 22.291,10.042C22.813,10.042 23.017,10.431 23.069,10.674L22.664,10.674C22.628,10.58 22.534,10.415 22.291,10.415C22.048,10.415 21.853,10.609 21.853,10.901C21.853,11.193 22.048,11.388 22.291,11.388C22.534,11.388 22.628,11.225 22.664,11.112L23.069,11.112ZM18.723,10.901C18.723,11.404 18.366,11.76 17.88,11.76C17.394,11.76 17.037,11.404 17.037,10.901C17.037,10.399 17.394,10.042 17.88,10.042C18.366,10.042 18.723,10.399 18.723,10.901ZM24.294,11.566L24.278,11.566C24.249,11.602 24.21,11.634 24.165,11.663C24.087,11.712 23.973,11.76 23.808,11.76C23.432,11.76 23.208,11.53 23.208,11.258C23.208,10.934 23.435,10.707 23.889,10.707L24.262,10.707L24.262,10.674C24.262,10.493 24.152,10.366 23.97,10.366C23.789,10.366 23.695,10.483 23.678,10.577L23.273,10.577C23.309,10.305 23.529,10.042 23.97,10.042C24.392,10.042 24.667,10.321 24.667,10.674L24.667,11.728L24.327,11.728L24.294,11.566ZM13.946,9.459L13.54,9.459L13.54,11.728L13.946,11.728L13.946,9.459ZM10.723,9.864L10.043,9.864L10.043,9.459L11.826,9.459L11.826,9.864L11.145,9.864L11.145,11.728L10.723,11.728L10.723,9.864ZM16.215,10.464L15.939,10.464L15.939,10.075L16.215,10.075L16.215,9.831C16.215,9.585 16.373,9.426 16.62,9.426L16.976,9.426L16.976,9.783L16.733,9.783C16.668,9.783 16.62,9.831 16.62,9.896L16.62,10.075L16.976,10.075L16.976,10.464L16.62,10.464L16.62,11.728L16.215,11.728L16.215,10.464ZM18.966,10.075L19.339,10.075L19.371,10.237L19.387,10.237C19.417,10.201 19.456,10.169 19.498,10.139C19.572,10.091 19.686,10.042 19.841,10.042C20.214,10.042 20.49,10.318 20.49,10.739L20.49,11.728L20.084,11.728L20.084,10.772C20.084,10.561 19.939,10.415 19.728,10.415C19.517,10.415 19.371,10.561 19.371,10.772L19.371,11.728L18.966,11.728L18.966,10.075ZM21.205,10.075L20.8,10.075L20.8,11.728L21.205,11.728L21.205,10.075ZM24.262,11.015L23.922,11.015C23.711,11.015 23.614,11.096 23.614,11.225C23.614,11.355 23.708,11.436 23.873,11.436C24.119,11.436 24.262,11.294 24.262,11.063L24.262,11.015ZM18.318,10.901C18.318,10.609 18.123,10.415 17.88,10.415C17.637,10.415 17.442,10.609 17.442,10.901C17.442,11.193 17.637,11.388 17.88,11.388C18.123,11.388 18.318,11.193 18.318,10.901ZM3.838,9.841C3.838,9.333 3.426,8.922 2.919,8.922C2.411,8.922 2,9.333 2,9.841C2,10.348 2.411,10.759 2.919,10.759C3.426,10.759 3.838,10.348 3.838,9.841ZM5.997,9.841C5.997,9.333 5.586,8.922 5.078,8.922C4.571,8.922 4.159,9.333 4.159,9.841C4.159,10.348 4.571,10.759 5.078,10.759C5.586,10.759 5.997,10.348 5.997,9.841ZM8.157,9.841C8.157,9.333 7.745,8.922 7.238,8.922C6.73,8.922 6.319,9.333 6.319,9.841C6.319,10.348 6.73,10.759 7.238,10.759C7.745,10.759 8.157,10.348 8.157,9.841ZM15.437,10.755C15.401,10.545 15.262,10.383 15.031,10.383C14.785,10.383 14.642,10.545 14.594,10.755L15.437,10.755ZM12.892,10.755C12.856,10.545 12.717,10.383 12.487,10.383C12.24,10.383 12.098,10.545 12.049,10.755L12.892,10.755ZM18.026,9.378L18.447,9.378L18.058,9.848L17.718,9.848L18.026,9.378ZM21.242,9.597C21.242,9.465 21.135,9.357 21.003,9.357C20.87,9.357 20.763,9.465 20.763,9.597C20.763,9.73 20.87,9.837 21.003,9.837C21.135,9.837 21.242,9.73 21.242,9.597Z" />
</svg>
